X:207
T: Bei Sedan wohl auf der Hh (3-52), S. 137
N: K1182
O: Luxemburg
S: KINTZELE, Guillaume: An der Ucht, Bd. 3 Luxemburg 1928]
N: in der Quelle mit einer 2. Stimme versehen
R: Soldaten-, Kriegslied, Tod]
M: 3/4
L: 1/16
K: Bb
F2F2 | B4F2F2G3G | G8
B2B2 | A6E2G3G | F8
F2F2 | d4c4B2B2 | A4G4
G2e2 | d6d2c2c2 | B8
F2F2 | d4c4B2B2 | A4G4
G2e2 | d6d2c2c2 | B8

